gtk-icons/Papirus-GTK/48x48/apps/shutter.svg

<?xml version="1.0" encoding="UTF-8" standalone="no"?>
<svg
   xmlns:dc="http://purl.org/dc/elements/1.1/"
   xmlns:cc="http://creativecommons.org/ns#"
   xmlns:rdf="http://www.w3.org/1999/02/22-rdf-syntax-ns#"
   xmlns:svg="http://www.w3.org/2000/svg"
   xmlns="http://www.w3.org/2000/svg"
   xmlns:sodipodi="http://sodipodi.sourceforge.net/DTD/sodipodi-0.dtd"
   xmlns:inkscape="http://www.inkscape.org/namespaces/inkscape"
   viewBox="0 0 48 48"
   id="svg2"
   version="1.1"
   inkscape:version="0.91 r"
   sodipodi:docname="shutter.svg">
  <metadata
     id="metadata98">
    <rdf:RDF>
      <cc:Work
         rdf:about="">
        <dc:format>image/svg+xml</dc:format>
        <dc:type
           rdf:resource="http://purl.org/dc/dcmitype/StillImage" />
        <dc:title />
      </cc:Work>
    </rdf:RDF>
  </metadata>
  <sodipodi:namedview
     pagecolor="#ffffff"
     bordercolor="#666666"
     borderopacity="1"
     objecttolerance="10"
     gridtolerance="10"
     guidetolerance="10"
     inkscape:pageopacity="0"
     inkscape:pageshadow="2"
     inkscape:window-width="1535"
     inkscape:window-height="876"
     id="namedview96"
     showgrid="false"
     inkscape:zoom="1"
     inkscape:cx="-135"
     inkscape:cy="32.032129"
     inkscape:window-x="65"
     inkscape:window-y="24"
     inkscape:window-maximized="1"
     inkscape:current-layer="svg2" />
  <defs
     id="defs4">
    <clipPath
       id="clipPath-429196716">
      <g
         transform="translate(0,-1004.3622)"
         id="g17">
        <path
           d="m -24 13 c 0 1.105 -0.672 2 -1.5 2 -0.828 0 -1.5 -0.895 -1.5 -2 0 -1.105 0.672 -2 1.5 -2 0.828 0 1.5 0.895 1.5 2 z"
           transform="matrix(15.333333,0,0,11.5,414.99999,878.8622)"
           style="fill:#1890d0"
           id="path19" />
      </g>
    </clipPath>
  </defs>
  <g
     id="g72"
     transform="matrix(1.3846283,0,0,1.3795548,-9.2336458,-9.7909997)">
    <g
       id="g74"
       clip-path="url(#clipPath-429196716)">
      <!-- color: #eeeeee -->
      <g
         id="g76">
        <path
           style="fill:#37a0f2;fill-opacity:1;fill-rule:nonzero;stroke:none"
           d="M 36.960938,4.0019531 C 31.327015,4.0672444 22.635301,5.6335616 19.917969,8.8710938 l -0.0059,0 C 17.743851,12.023437 17.467724,24.357805 18.03125,23.597656 22.644683,17.335737 33.704129,9.6023371 40.308594,6.4941406 43.874676,4.8083786 41.342878,3.951171 36.960938,4.0019531 Z M 31.521484,14.216797 c -3.813143,0.274537 -10.519642,6.767717 -9.578125,6.730469 7.799361,-0.269019 12.670614,0.176953 18.75586,2.068359 0.902748,0.280055 -0.972691,-8.162841 -9.177735,-8.798828 z m -4.125,6.759765 c -0.201151,0.01048 -0.284468,0.06324 -0.216796,0.160157 4.456975,6.402636 6.722,10.739196 8.4375,16.876953 0.254763,0.910523 6.327391,-5.248472 2.40625,-12.484375 C 36.01233,22.855496 28.804544,20.90321 27.396484,20.976562 Z m 2.320313,5.13086 c -0.04407,-0.01149 -0.07531,0.0094 -0.08984,0.06641 -1.974416,7.550448 -3.797015,12.094645 -7.345703,17.386719 -0.530296,0.780843 8.096895,1.40049 11.048828,-6.285156 l 0.002,0.0039 C 34.108264,33.778178 30.377898,26.279711 29.716797,26.107422 Z m -2.166016,4.824219 c -0.01803,-0.0045 -0.03993,-9.13e-4 -0.06641,0.01172 -7.041993,3.367558 -11.687335,4.91016 -18.0273438,5.605469 -0.9359786,0.107607 4.1524808,7.098278 11.9296878,4.398438 l 0.0078,-0.002 c 3.279517,-1.722708 6.715119,-9.873415 6.15625,-10.013671 z"
           transform="matrix(0.7222387,0,0,0.72485766,6.6680748,7.0974008)"
           id="path78"
           inkscape:connector-curvature="0" />
        <path
           style="fill:#4d4d4d;fill-opacity:1;fill-rule:nonzero;stroke:none"
           d="m 15.916016,11.048828 c -1.423393,0.241823 -7.1360136,4.180389 -5.820313,11.257813 l 0.002,0.0039 c 1.248895,3.615882 9.249573,8.422583 8.972656,7.517578 -2.272102,-7.463534 -3.093222,-12.292242 -2.839843,-18.65625 0.0047,-0.117954 -0.111112,-0.157593 -0.314453,-0.123047 z M 6.7421875,22.195312 c -0.7334782,-0.09648 -2.4523906,7.91606 4.4003905,11.988282 3.54315,1.444421 12.427617,-1.401741 11.566406,-1.794922 -7.112607,-3.206147 -11.281419,-5.772515 -15.9003902,-10.158203 -0.021288,-0.02039 -0.042746,-0.03204 -0.066406,-0.03516 z"
           transform="matrix(0.7222387,0,0,0.72485766,6.6680748,7.0974008)"
           id="path82"
           inkscape:connector-curvature="0" />
      </g>
    </g>
  </g>
  <g
     transform="matrix(1.3846283,0,0,1.3795548,-9.2336458,-9.7909997)"
     id="g4715">
    <g
       clip-path="url(#clipPath-429196716)"
       id="g4717">
      <!-- color: #eeeeee -->
      <g
         id="g4719">
        <path
           style="fill:#000000;fill-opacity:1;fill-rule:nonzero;stroke:none;opacity:0.3"
           d="M 41.681641 4.6464844 C 41.412016 4.9003048 40.965577 5.1835869 40.308594 5.4941406 C 33.703916 8.6022776 22.644831 16.335857 18.03125 22.597656 C 17.899375 22.775536 17.819396 22.191497 17.792969 21.220703 C 17.779788 22.78085 17.860134 23.828466 18.03125 23.597656 C 22.644831 17.335857 33.703916 9.6022776 40.308594 6.4941406 C 42.02665 5.6820208 42.319243 5.0651358 41.681641 4.6464844 z M 16.212891 11.099609 C 16.198702 11.70778 16.192159 12.311731 16.199219 12.898438 C 16.203905 12.33018 16.20692 11.7633 16.230469 11.171875 C 16.231614 11.143122 16.225589 11.119115 16.212891 11.099609 z M 9.921875 19.671875 C 9.8765527 20.495737 9.9219477 21.372022 10.095703 22.306641 L 10.097656 22.310547 C 10.606858 23.784744 12.241301 25.441429 13.976562 26.84375 C 15.500115 27.801603 17.162671 28.710425 19.013672 29.632812 C 18.93747 29.381189 18.873665 29.150105 18.800781 28.904297 C 17.415434 28.522292 11.187552 24.465922 10.097656 21.310547 L 10.095703 21.306641 C 9.9901996 20.739144 9.9428328 20.198723 9.921875 19.671875 z M 24.738281 19.880859 C 24.031171 19.888677 23.280028 19.910637 22.521484 19.933594 C 21.956723 20.549055 21.706214 20.956647 21.943359 20.947266 C 24.054033 20.874467 25.9393 20.859852 27.703125 20.90625 C 27.525071 20.646617 27.36522 20.403231 27.179688 20.136719 C 27.112012 20.039802 27.195327 19.987042 27.396484 19.976562 C 28.107332 19.939534 30.296647 20.42039 32.548828 21.248047 C 35.279962 21.575414 37.860087 22.133216 40.699219 23.015625 C 40.910529 23.081175 40.962856 22.6568 40.824219 21.978516 C 40.791642 22.015064 40.750026 22.031386 40.699219 22.015625 C 35.374457 20.360676 30.978914 19.811867 24.738281 19.880859 z M 27.396484 20.976562 C 27.195327 20.987042 27.112012 21.039804 27.179688 21.136719 C 28.212964 22.620989 29.117442 23.986468 29.935547 25.296875 C 30.177183 25.574958 30.538789 26.190803 30.9375 26.966797 C 33.062344 30.6108 34.471544 33.914972 35.617188 38.013672 C 35.816163 38.724775 39.544639 35.116935 39.308594 30.058594 C 39.060348 34.581374 35.802769 37.676907 35.617188 37.013672 C 33.982437 31.165126 31.825343 26.931498 27.771484 21.007812 C 27.647205 20.997849 27.481187 20.97215 27.396484 20.976562 z M 6.015625 24.732422 C 5.8962652 27.409947 6.7801622 31.591389 11.142578 34.183594 C 12.239058 34.630568 13.847179 34.665165 15.519531 34.490234 C 17.759985 33.940708 19.962174 33.208903 22.363281 32.228516 C 22.188174 32.148995 22.028983 32.071001 21.857422 31.992188 C 19.642635 32.890192 13.84942 34.287024 11.142578 33.183594 C 7.2960513 30.897937 6.1510316 27.370186 6.015625 24.732422 z M 27.550781 30.931641 C 27.532751 30.927141 27.510856 30.930727 27.484375 30.943359 C 27.449183 30.960188 27.417885 30.973497 27.382812 30.990234 C 26.647645 33.250802 23.988758 38.582653 21.394531 39.945312 L 21.386719 39.947266 C 15.388404 42.02946 11.003565 38.354523 9.734375 36.511719 C 9.639805 36.522559 9.5523538 36.538375 9.4570312 36.548828 C 8.5210226 36.656433 13.609262 43.647054 21.386719 40.947266 L 21.394531 40.945312 C 24.674154 39.222638 28.109668 31.071894 27.550781 30.931641 z M 33.414062 35.671875 C 33.397257 35.883115 33.374065 36.089704 33.332031 36.279297 L 33.330078 36.275391 C 30.86128 42.702817 24.442321 43.316972 22.710938 42.890625 C 22.565218 43.114691 22.433148 43.334036 22.28125 43.560547 C 21.750937 44.341375 30.37805 44.96089 33.330078 37.275391 L 33.332031 37.279297 C 33.436516 36.808025 33.454413 36.260394 33.414062 35.671875 z "
           transform="matrix(0.72221549,0,0,0.72487153,6.668682,7.0972169)"
           id="path4721" />
      </g>
    </g>
  </g>
  <g
     id="g4726"
     transform="matrix(1.3846283,0,0,1.3795548,-9.2336458,-10.791553)"
     style="fill:#007e00;fill-opacity:1">
    <g
       id="g4728"
       clip-path="url(#clipPath-429196716)"
       style="fill:#007e00;fill-opacity:1">
      <!-- color: #eeeeee -->
      <g
         id="g4730"
         style="fill:#007e00;fill-opacity:1" />
    </g>
  </g>
  <g
     transform="matrix(1.3846283,0,0,1.3795548,-9.2336458,-9.7909997)"
     id="g4735">
    <g
       clip-path="url(#clipPath-429196716)"
       id="g4737">
      <!-- color: #eeeeee -->
      <g
         id="g4739">
        <path
           style="fill:#ffffff;fill-opacity:1;fill-rule:nonzero;stroke:none;opacity:0.1"
           d="M 36.960938 4.0019531 C 31.326832 4.0672432 22.635388 5.6336235 19.917969 8.8710938 L 19.912109 8.8710938 C 18.251225 11.285709 17.706467 19.042995 17.792969 22.220703 C 17.823197 18.642744 18.402206 12.066209 19.912109 9.8710938 L 19.917969 9.8710938 C 22.635388 6.6336235 31.326832 5.0672475 36.960938 5.0019531 C 39.234213 4.9756102 40.999237 5.195201 41.683594 5.6464844 C 42.873523 4.5236203 40.533996 3.9605473 36.960938 4.0019531 z M 15.916016 11.048828 C 14.606716 11.271256 9.681467 14.628362 9.921875 20.671875 C 10.219751 15.257138 14.680555 12.258712 15.916016 12.048828 C 16.073863 12.02201 16.17596 12.040956 16.212891 12.105469 C 16.22015 11.79289 16.217735 11.491677 16.230469 11.171875 C 16.235169 11.053923 16.119363 11.014283 15.916016 11.048828 z M 16.199219 13.898438 C 16.155638 19.182747 16.944029 23.646772 18.800781 29.908203 C 19.002594 29.963769 19.105547 29.94327 19.070312 29.828125 C 17.133689 23.466917 16.260733 19.013616 16.199219 13.898438 z M 31.521484 14.216797 C 27.708219 14.491329 21.001812 20.984513 21.943359 20.947266 C 22.145026 20.94031 22.323662 20.939581 22.521484 20.933594 C 24.199019 19.105463 28.668657 15.422183 31.521484 15.216797 C 37.808096 15.704058 40.371696 20.761973 40.824219 22.980469 C 41.370488 22.367593 39.26501 14.81698 31.521484 14.216797 z M 27.703125 21.90625 C 27.726534 21.940383 27.748203 21.973792 27.771484 22.007812 C 29.71325 22.163484 36.133244 24.016383 38.023438 26.529297 C 38.882394 28.114297 39.242531 29.639907 39.308594 31.058594 C 39.401146 29.37239 39.088355 27.494348 38.023438 25.529297 C 37.026691 24.204175 34.753907 23.058051 32.542969 22.246094 C 31.006128 22.062089 29.41413 21.951259 27.703125 21.90625 z M 6.7421875 22.195312 C 6.4204911 22.153 5.9101963 23.67168 6.015625 25.732422 C 6.0835102 24.202666 6.4754939 23.160236 6.7421875 23.195312 C 6.7658508 23.19843 6.787312 23.210079 6.8085938 23.230469 C 11.234225 27.432367 15.275115 29.969555 21.859375 32.994141 C 22.542375 32.717029 22.912085 32.481391 22.708984 32.388672 C 21.3714 31.78576 20.165585 31.20684 19.013672 30.632812 C 19.034089 30.700231 19.049656 30.760274 19.070312 30.828125 C 19.234172 31.363614 16.503195 29.88173 13.984375 27.847656 C 11.410971 26.230435 9.1656088 24.468327 6.8085938 22.230469 C 6.787305 22.210079 6.7658483 22.198432 6.7421875 22.195312 z M 29.716797 26.107422 C 29.672725 26.095932 29.641484 26.116819 29.626953 26.173828 C 27.652474 33.724132 25.830052 38.268574 22.28125 43.560547 C 22.194631 43.688083 22.371628 43.807182 22.708984 43.890625 C 25.968092 38.879473 27.736876 34.401388 29.626953 27.173828 C 29.641492 27.116797 29.672724 27.095972 29.716797 27.107422 C 30.288927 27.256516 33.154664 32.888354 33.414062 36.671875 C 33.614828 34.148366 32.114318 30.257186 30.9375 27.966797 C 30.618825 27.420284 30.290857 26.866851 29.9375 26.300781 C 29.848551 26.198018 29.769974 26.12128 29.716797 26.107422 z M 27.550781 30.931641 C 27.532751 30.927141 27.510856 30.930727 27.484375 30.943359 C 25.636083 31.827188 23.957243 32.578419 22.365234 33.228516 C 22.484176 33.282528 22.588366 33.334303 22.708984 33.388672 C 23.303709 33.660176 19.251373 35.09988 15.519531 35.490234 C 13.586534 35.96435 11.622493 36.311354 9.4570312 36.548828 C 9.2432164 36.573409 9.3572821 36.966361 9.7324219 37.511719 C 15.897558 36.805267 20.50433 35.27276 27.382812 31.990234 C 27.576877 31.393361 27.667539 30.960941 27.550781 30.931641 z "
           transform="matrix(0.72221549,0,0,0.72487153,6.668682,7.0972169)"
           id="path4741" />
      </g>
    </g>
  </g>
</svg>

<?xml version="1.0" encoding="UTF-8" standalone="no"?>
<svg id="svg2" xmlns:rdf="http://www.w3.org/1999/02/22-rdf-syntax-ns#" xmlns="http://www.w3.org/2000/svg" version="1.1" xmlns:cc="http://creativecommons.org/ns#" xmlns:dc="http://purl.org/dc/elements/1.1/" viewBox="0 0 48 48">
 <metadata id="metadata98">
  <rdf:RDF>
   <cc:Work rdf:about="">
    <dc:format>image/svg+xml</dc:format>
    <dc:type rdf:resource="http://purl.org/dc/dcmitype/StillImage"/>
    <dc:title/>
   </cc:Work>
  </rdf:RDF>
 </metadata>
 <defs id="defs4">
  <clipPath id="clipPath-429196716">
   <g id="g17" transform="translate(0 -1004.4)">
    <path id="path19" fill="#1890d0" d="m-24 13c0 1.105-0.672 2-1.5 2s-1.5-0.895-1.5-2 0.672-2 1.5-2 1.5 0.895 1.5 2z" transform="matrix(15.333 0 0 11.5 415 878.86)"/>
   </g>
  </clipPath>
 </defs>
 <g id="g72" transform="matrix(1.3846 0 0 1.3796 -9.2336 -9.791)">
  <g id="g74" clip-path="url(#clipPath-429196716)"><!-- color: #eeeeee -->
   <g id="g76">
    <path id="path78" d="m36.961 4.002c-5.634 0.0652-14.326 1.6316-17.043 4.8691h-0.0059c-2.168 3.1519-2.444 15.487-1.881 14.727 4.614-6.262 15.673-13.996 22.278-17.104 3.566-1.6856 1.034-2.5428-3.348-2.492zm-5.44 10.215c-3.8131 0.27454-10.52 6.7677-9.5781 6.7305 7.7994-0.26902 12.671 0.17695 18.756 2.0684 0.90275 0.28006-0.97269-8.1628-9.1777-8.7988zm-4.125 6.7598c-0.20115 0.01048-0.28447 0.06324-0.2168 0.16016 4.457 6.4026 6.722 10.739 8.4375 16.877 0.25476 0.91052 6.3274-5.2485 2.4062-12.484-2.011-2.675-9.218-4.627-10.627-4.553zm2.3203 5.1309c-0.04407-0.01149-0.07531 0.0094-0.08984 0.06641-1.9744 7.5504-3.797 12.095-7.3457 17.387-0.5303 0.78084 8.0969 1.4005 11.049-6.2852l0.002 0.0039c0.776-3.502-2.954-11-3.615-11.173zm-2.166 4.8242c-0.01803-0.0045-0.03993-0.000913-0.06641 0.01172-7.042 3.3676-11.687 4.9102-18.027 5.6055-0.93598 0.10761 4.1525 7.0983 11.93 4.3984l0.0078-0.002c3.2795-1.7227 6.7151-9.8734 6.1562-10.014z" transform="matrix(.72224 0 0 .72486 6.6681 7.0974)" fill="#37a0f2"/>
    <path id="path82" d="m15.916 11.049c-1.4234 0.24182-7.136 4.1804-5.8203 11.258l0.002 0.0039c1.2489 3.6159 9.2496 8.4226 8.9727 7.5176-2.2721-7.4635-3.0932-12.292-2.8398-18.656 0.0047-0.11795-0.11111-0.15759-0.31445-0.12305zm-9.1738 11.146c-0.73348-0.09648-2.4524 7.9161 4.4004 11.988 3.5432 1.4444 12.428-1.4017 11.566-1.7949-7.1126-3.2061-11.281-5.7725-15.9-10.158-0.021288-0.02039-0.042746-0.03204-0.066406-0.03516z" transform="matrix(.72224 0 0 .72486 6.6681 7.0974)" fill="#4d4d4d"/>
   </g>
  </g>
 </g>
 <g id="g4715" transform="matrix(1.3846 0 0 1.3796 -9.2336 -9.791)">
  <g id="g4717" clip-path="url(#clipPath-429196716)"><!-- color: #eeeeee -->
   <g id="g4719">
    <path id="path4721" opacity=".3" d="m41.682 4.6465c-0.27 0.2538-0.716 0.5371-1.373 0.8476-6.605 3.1082-17.664 10.842-22.278 17.104-0.132 0.178-0.212-0.407-0.238-1.377-0.013 1.56 0.067 2.607 0.238 2.377 4.614-6.262 15.673-13.996 22.278-17.104 1.718-0.812 2.01-1.4289 1.373-1.8475zm-25.469 6.4535c-0.014 0.608-0.021 1.212-0.014 1.798 0.005-0.568 0.008-1.135 0.031-1.726 0.002-0.029-0.004-0.053-0.017-0.072zm-6.2911 8.572c-0.0453 0.824 0 1.7 0.1741 2.635l0.002 0.004c0.509 1.474 2.143 3.13 3.879 4.533 1.523 0.958 3.186 1.866 5.037 2.789-0.077-0.252-0.14-0.483-0.213-0.729-1.386-0.382-7.613-4.438-8.703-7.593l-0.002-0.004c-0.1058-0.568-0.1532-1.108-0.1741-1.635zm14.816 0.209c-0.707 0.008-1.458 0.03-2.217 0.053-0.564 0.615-0.815 1.023-0.578 1.013 2.111-0.073 3.996-0.087 5.76-0.041-0.178-0.259-0.338-0.503-0.523-0.769-0.068-0.097 0.015-0.15 0.216-0.16 0.711-0.037 2.901 0.443 5.153 1.271 2.731 0.327 5.311 0.885 8.15 1.768 0.212 0.065 0.264-0.359 0.125-1.037-0.032 0.036-0.074 0.052-0.125 0.037-5.325-1.655-9.72-2.204-15.961-2.135zm2.658 1.096c-0.201 0.01-0.284 0.063-0.216 0.16 1.033 1.484 1.937 2.849 2.756 4.16 0.241 0.278 0.603 0.894 1.002 1.67 2.124 3.644 3.534 6.948 4.679 11.047 0.199 0.711 3.928-2.897 3.692-7.955-0.249 4.522-3.506 7.618-3.692 6.955-1.635-5.849-3.792-10.083-7.846-16.006-0.124-0.01-0.29-0.036-0.375-0.031zm-21.38 3.755c-0.1193 2.678 0.7646 6.859 5.1274 9.452 1.096 0.447 2.704 0.481 4.377 0.306 2.24-0.549 4.442-1.281 6.843-2.261-0.175-0.08-0.334-0.158-0.506-0.237-2.214 0.898-8.008 2.295-10.714 1.192-3.8469-2.286-4.992-5.814-5.1274-8.452zm21.535 6.2c-0.018-0.005-0.04-0.001-0.067 0.011-0.035 0.017-0.066 0.03-0.101 0.047-0.735 2.261-3.394 7.593-5.988 8.955l-0.008 0.002c-5.999 2.082-10.383-1.592-11.653-3.435-0.0942 0.011-0.1816 0.026-0.277 0.037-0.936 0.107 4.152 7.098 11.93 4.398l0.008-0.002c3.279-1.722 6.715-9.873 6.156-10.013zm5.863 4.74c-0.017 0.211-0.04 0.418-0.082 0.607l-0.002-0.004c-2.469 6.428-8.888 7.042-10.619 6.616-0.146 0.224-0.278 0.443-0.43 0.67-0.53 0.78 8.097 1.4 11.049-6.286l0.002 0.004c0.105-0.471 0.122-1.019 0.082-1.607z" transform="matrix(.72222 0 0 .72487 6.6687 7.0972)"/>
   </g>
  </g>
 </g>
 <g id="g4726" fill="#007e00" transform="matrix(1.3846 0 0 1.3796 -9.2336 -10.792)">
  <g id="g4728" fill="#007e00" clip-path="url(#clipPath-429196716)"><!-- color: #eeeeee --></g>
 </g>
 <g id="g4735" transform="matrix(1.3846 0 0 1.3796 -9.2336 -9.791)">
  <g id="g4737" clip-path="url(#clipPath-429196716)"><!-- color: #eeeeee -->
   <g id="g4739">
    <path id="path4741" opacity=".1" d="m36.961 4.002c-5.634 0.0652-14.326 1.6316-17.043 4.8691h-0.006c-1.661 2.4149-2.206 10.172-2.119 13.35 0.03-3.578 0.609-10.155 2.119-12.35l0.006 0.0001c2.717-3.2375 11.409-4.8039 17.043-4.8691 2.273-0.0264 4.038 0.1932 4.723 0.6445 1.19-1.1229-1.15-1.686-4.723-1.6445zm-21.045 7.047c-1.309 0.222-6.2345 3.579-5.9941 9.623 0.2981-5.415 4.7591-8.413 5.9941-8.623 0.158-0.027 0.26-0.008 0.297 0.056 0.007-0.312 0.005-0.613 0.017-0.933 0.005-0.118-0.111-0.158-0.314-0.123zm0.283 2.849c-0.043 5.285 0.745 9.749 2.602 16.01 0.202 0.056 0.305 0.035 0.269-0.08-1.936-6.361-2.809-10.814-2.871-15.93zm15.322 0.319c-3.813 0.274-10.519 6.768-9.578 6.73 0.202-0.007 0.381-0.007 0.578-0.013 1.678-1.829 6.148-5.512 9-5.717 6.287 0.487 8.851 5.545 9.303 7.763 0.546-0.612-1.559-8.163-9.303-8.763zm-3.818 7.689c0.024 0.034 0.045 0.068 0.068 0.102 1.942 0.155 8.362 2.008 10.252 4.521 0.859 1.585 1.22 3.111 1.286 4.53 0.092-1.687-0.221-3.565-1.286-5.53-0.996-1.325-3.269-2.471-5.48-3.283-1.537-0.184-3.129-0.295-4.84-0.34zm-20.961 0.289c-0.3217-0.042-0.832 1.477-0.7266 3.537 0.0679-1.529 0.4599-2.572 0.7266-2.537 0.0237 0.003 0.0451 0.015 0.0664 0.035 4.4254 4.202 8.4664 6.74 15.05 9.764 0.683-0.277 1.053-0.513 0.85-0.605-1.338-0.603-2.543-1.182-3.695-1.756 0.02 0.067 0.036 0.127 0.056 0.195 0.164 0.536-2.567-0.946-5.086-2.98-2.573-1.618-4.8184-3.38-7.1754-5.618-0.0213-0.02-0.0428-0.032-0.0664-0.035zm22.975 3.912c-0.044-0.011-0.076 0.01-0.09 0.067-1.975 7.55-3.797 12.095-7.346 17.387-0.086 0.127 0.091 0.246 0.428 0.33 3.259-5.012 5.028-9.49 6.918-16.717 0.014-0.057 0.046-0.078 0.09-0.067 0.572 0.15 3.438 5.781 3.697 9.565 0.201-2.524-1.3-6.415-2.476-8.705-0.319-0.547-0.647-1.1-1-1.666-0.089-0.103-0.168-0.18-0.221-0.194zm-2.166 4.825c-0.018-0.005-0.04-0.001-0.067 0.011-1.848 0.884-3.527 1.635-5.119 2.286 0.119 0.054 0.223 0.105 0.344 0.16 0.595 0.271-3.458 1.711-7.189 2.101-1.933 0.474-3.898 0.821-6.063 1.059-0.2138 0.024-0.0997 0.417 0.2754 0.963 6.1656-0.707 10.772-2.239 17.651-5.522 0.194-0.597 0.285-1.029 0.168-1.058z" transform="matrix(.72222 0 0 .72487 6.6687 7.0972)" fill="#fff"/>
   </g>
  </g>
 </g>
</svg>
